!!!OTL: Ritter Sent Jerry (3-14), S. 51
!!!id: P0986
**kern
*clefG2
*k[b-]
*F:
{4f
=1
4g
4g
4a
=2
4b-
4a
4dd
=3
4cc
4a
4dd
=4
2cc}
=5
{4g
=6
4g
4a
4b-
=7
2cc}
=8
{8cc
8cc
=9
2cc
4dd
=10
4cc
4b-
4a
=11
4b-
4a
8g
8g
=12
4a
4g}
=13
{4f
=14
2g
4a
=15
2cc
4g
=16
2a
4g
=17
2f}
==
*-
!!!minrhy: 8
!!!meters: 3/4 ]  ZZ[4
!!!cut: Ritter Sent Jerry (3-14), S. 51
!!!reg: Lothringen
!!!trd: PINCK, Louis: Verklingende Weisen, Bd3, Metz 1933
!!!rhy1: X_  X_X_X_  X_X_X_  X_X_X_  X__   (x2)
!!!rhy2: X_  X_X_X_  X__
!!!key: P0986  08  F 3/4 ]  ZZ[4
!!!mod: SECHSTONSKALA DUR ?]  AMBITUS[6
!!!kad: 5521
!!!akz: 2455_25_5543_2531_
!!!fot: 'a__b__c__d__
!!!for: 'a__aw_b__c__
!!!fok: '~a_/__\__^__
!! PHRAS[AUFTAKTIG]
!!!fkt: yyy
!! LOTH VKL
!! PR[17] 2K[14] 2G[17] 3K[0] 3G[3] 4A[10] 4Ü[0] 5A[0] 6K[0] 6G[0]
!! 7K[0] 7G[0] 8A[0] MEHR[0] SI[45] ABS[29] SR[31] SP[14]
!! ST[10] 2k[14] 2g[14] 3k[0] 3g[3] 4d[3] 4ü[0] 5d[3] 6k[0] 6g[0]
!! 7k[0] 7g[0] 8d[0] mehr[0] si[38] dm[+7] sr[28] sp[10]
!! 1F[3] 2F[9] 3F[55] 4F[27] LF[0] 2P[3] 3P[3] 4P[0] TRI[0] DF[6] AB[33]
!! TF[0] U3K[0] U3[0] U4[0] U4Ü[0] U5[10] U6K[0] U6[0] U7K[3] U7[7]
!! N1[20] N2K[0] N2[10] N3K[13] N3[0] N4[13] N4Ü[0] N5[20] N6K[3] N6[0]
!!!n7k: 0] N7[0] O1[0] O2K[0] O2[0] O3K[0] O3[0] HÖ[0
